Hatter-kde-dark/actions/24/gnumeric-formulaguru.svg

<svg xmlns="http://www.w3.org/2000/svg" viewBox="0 0 24 24">
  <defs id="defs3051">
    <style type="text/css" id="current-color-scheme">
      .ColorScheme-Text {
        color:#dedede;
      }
      </style>
  </defs>
 <path style="fill:currentColor;fill-opacity:1;stroke:none" 
     d="M 11 4 C 9.343146 4 8 5.3431 8 7 L 8 9 L 6 9 L 6 10 L 8 10 L 8 11 L 8 20 L 9 20 L 9 10 L 10 10 L 11 10 L 11 9 L 10 9 L 9 9 L 9 7 C 9 5.8954305 9.8954305 5 11 5 L 12 5 L 12 4 L 11 4 z M 14.742188 14 L 14 14.732422 L 16.292969 17 L 14 19.267578 L 14.742188 20 L 17.035156 17.732422 L 19.257812 19.931641 L 20 19.199219 L 17.775391 17 L 20 14.800781 L 19.257812 14.068359 L 17.035156 16.267578 L 14.742188 14 z "
     class="ColorScheme-Text"
     />
</svg>

<?xml version="1.0" encoding="UTF-8"?>
<svg viewBox="0 0 24 24" xmlns="http://www.w3.org/2000/svg">
 <defs id="defs3051">
  <style id="current-color-scheme" type="text/css">.ColorScheme-Text {
        color:#dedede;
      }</style>
 </defs>
 <path class="ColorScheme-Text" d="m11 4c-1.6569 0-3 1.3431-3 3v2h-2v1h2v1 9h1v-10h1 1v-1h-1-1v-2c0-1.1046 0.89543-2 2-2h1v-1h-1zm3.7422 10-0.74219 0.73242 2.293 2.2676-2.293 2.2676 0.74219 0.73242 2.293-2.2676 2.2227 2.1992 0.74219-0.73242-2.2246-2.1992 2.2246-2.1992-0.74219-0.73242-2.2227 2.1992-2.293-2.2676z" fill="currentColor"/>
</svg>
